symbolic/24x24/apps/company-of-heroes-2.svg

<svg xmlns="http://www.w3.org/2000/svg" width="24" height="24" version="1">
 <path style="opacity:0.2" d="m 11.500013,2.5000769 c -0.94659,0.013346 -1.6216662,0.575785 -1.9384786,1.5068378 l 0.01172,-0.041992 -1.4873064,4.535162 -5.0156313,0 c -0.010935,-1.73e-4 -0.021291,-1.73e-4 -0.032227,0 C 2.4391364,8.5192347 1.899065,8.7950865 1.518557,9.2520386 0.69563145,10.183817 0.87005002,11.649906 1.9150418,12.344816 l 3.9433644,2.842777 -1.5302754,4.689459 c -0.0017,0.0052 -0.00328,0.01041 -0.00489,0.01563 -0.2338278,0.757682 -0.013944,1.538281 0.5742197,2.072269 0.00425,0.0039 0.00932,0.0079 0.01367,0.01172 0.7067884,0.619773 1.6998681,0.698544 2.4980497,0.185547 0.015185,-0.0097 0.030285,-0.01981 0.04492,-0.03027 l 4.0459078,-2.88184 4.045904,2.88184 c 0.01464,0.01047 0.02974,0.02058 0.04492,0.03027 0.798181,0.512997 1.791261,0.434226 2.49805,-0.185547 0.0043,-0.0038 0.0094,-0.0078 0.01367,-0.01172 0.588163,-0.533988 0.808047,-1.314587 0.574219,-2.072269 -0.0016,-0.0052 -0.0032,-0.01043 -0.0049,-0.01563 l -1.530275,-4.689459 3.943364,-2.842777 c 1.044992,-0.69491 1.219411,-2.160999 0.396485,-3.0927774 -0.380508,-0.4569521 -0.920579,-0.7328039 -1.519533,-0.7519539 -0.01093,-1.73e-4 -0.02129,-1.73e-4 -0.03223,0 l -5.015631,0 -1.487307,-4.5351622 0.01172,0.041992 C 13.12168,3.0758619 12.446604,2.5134224 11.500013,2.5000769 Z"/>
 <path style="fill:#e6412b" d="M 11.457031 1.9960938 C 11.311226 1.9983446 11.159399 2.0170524 11 2.0507812 L 11 2.0703125 C 10.3161 2.2433025 9.8179569 2.749379 9.5605469 3.5058594 L 9.5722656 3.4648438 L 8.0859375 8 L 3.0703125 8 C 3.0593775 7.999827 3.0480444 7.999827 3.0371094 8 C 2.4381557 8.01915 1.8980861 8.295001 1.5175781 8.7519531 C 0.69465262 9.6837317 0.86907072 11.14884 1.9140625 11.84375 L 5.8574219 14.6875 L 4.328125 19.376953 C 4.326425 19.382143 4.3238656 19.387378 4.3222656 19.392578 C 4.0884378 20.15026 4.3083206 20.930856 4.8964844 21.464844 C 4.8964844 21.464844 4.8984375 21.464844 4.8984375 21.464844 C 4.9024709 21.468451 4.9061645 21.473075 4.9101562 21.476562 C 4.9101562 21.476562 4.9121094 21.476562 4.9121094 21.476562 C 5.6188978 22.096335 6.6119747 22.175106 7.4101562 21.662109 C 7.4253412 21.652409 7.4404431 21.643272 7.4550781 21.632812 L 11.5 18.75 L 15.546875 21.632812 C 15.561515 21.643283 15.576617 21.652429 15.591797 21.662109 C 16.389978 22.175106 17.383055 22.096335 18.089844 21.476562 C 18.094144 21.472763 18.099246 21.468764 18.103516 21.464844 C 18.691679 20.930856 18.911562 20.15026 18.677734 19.392578 C 18.676134 19.387378 18.673575 19.382143 18.671875 19.376953 L 17.142578 14.6875 L 21.085938 11.84375 C 22.13093 11.14884 22.305348 9.6837317 21.482422 8.7519531 C 21.101914 8.295001 20.561845 8.01915 19.962891 8 C 19.951951 7.999827 19.940617 7.999827 19.929688 8 L 14.914062 8 L 13.427734 3.4648438 L 13.439453 3.5058594 C 13.162243 2.6911882 12.477667 1.9803381 11.457031 1.9960938 z"/>
 <path style="opacity:0.2;fill:#ffffff" d="m 11.500013,1.9999725 c -0.94659,0.013346 -1.6216662,0.575785 -1.9384786,1.5068378 l 0.011719,-0.041992 -1.4873064,4.5351619 -5.0156313,0 c -0.010935,-1.73e-4 -0.021292,-1.73e-4 -0.032227,0 C 2.4391349,8.0191301 1.8990635,8.2949819 1.5185555,8.751934 1.1051707,9.2199996 0.94466731,9.8222753 1.0185549,10.394514 1.0640594,9.9854485 1.2250292,9.5842875 1.5185555,9.2519346 1.8990634,8.7949825 2.4391348,8.5191307 3.0380886,8.4999807 c 0.010935,-1.73e-4 0.021291,-1.73e-4 0.032227,0 l 5.0156314,0 1.4873064,-4.535162 -0.01172,0.041992 C 9.8783468,3.0757581 10.553423,2.5133186 11.500013,2.4999731 c 0.946591,0.013345 1.621685,0.5757852 1.938479,1.5068378 l -0.01172,-0.041992 1.487306,4.535162 5.015631,0 c 0.01093,-1.73e-4 0.02129,-1.73e-4 0.03223,0 0.598954,0.01915 1.139026,0.2950018 1.519534,0.7519539 0.293526,0.3323529 0.454496,0.7335139 0.500001,1.1425794 0.07389,-0.5722387 -0.08662,-1.1745144 -0.500001,-1.64258 -0.380507,-0.4569521 -0.920578,-0.7328039 -1.519532,-0.751954 -0.01093,-1.73e-4 -0.02129,-1.73e-4 -0.03223,0 l -5.015631,0 -1.487307,-4.5351619 0.01172,0.041992 C 13.12168,2.5757575 12.446604,2.013318 11.500013,1.9999725 Z M 5.7265685,15.091786 4.3281293,19.376947 c -0.0017,0.0052 -0.00328,0.0104 -0.00488,0.01563 -0.089255,0.289222 -0.1114522,0.581397 -0.07324,0.862306 0.014579,-0.120583 0.036052,-0.241797 0.073242,-0.362305 0.0016,-0.0052 0.00319,-0.01043 0.00488,-0.01563 l 1.5302732,-4.689459 -0.1318362,-0.0957 z m 11.5468895,0 -0.131836,0.0957 1.530275,4.689459 c 0.0017,0.0052 0.0033,0.01041 0.0049,0.01563 0.03719,0.120508 0.05866,0.241722 0.07324,0.362305 0.03821,-0.280909 0.01601,-0.573084 -0.07324,-0.862306 -0.0016,-0.0052 -0.0032,-0.01044 -0.0049,-0.01563 l -1.398439,-4.285161 z"/>
 <path style="opacity:0.2;fill-rule:evenodd" d="m 11.5,10.499999 c 0,0 -0.354375,-0.007 -0.723635,0.17775 C 10.40711,10.862349 10,11.33335 10,11.999999 l 1,0 c 0,-0.5 0.5,-0.5 0.5,-0.5 0,0 0.5,0 0.5,0.5 0,0.2639 -0.0698,0.41145 -0.203125,0.5781 -0.133324,0.166701 -0.346679,0.334 -0.596679,0.5215 -0.25,0.1875 -0.536645,0.395201 -0.778321,0.6973 C 10.180201,14.09895 10,14.5139 10,15 l 0,0.5 3,0 0,-1 -1.82422,0 c 0.01565,-0.022 0.0094,-0.0556 0.02735,-0.0781 0.133325,-0.1667 0.34668,-0.334 0.59668,-0.5215 0.25,-0.1875 0.536645,-0.3952 0.77832,-0.6973 0.241676,-0.30205 0.421875,-0.717001 0.421875,-1.203101 0,-0.666649 -0.407109,-1.13765 -0.776365,-1.32225 C 11.854375,10.493099 11.5,10.499999 11.5,10.499999 Z"/>
 <path style="fill:#ffd93a;fill-rule:evenodd" d="m 11.5,9.9999992 c 0,0 -0.354375,-0.007 -0.723635,0.1777498 C 10.40711,10.362349 10,10.83335 10,11.499999 l 1,0 c 0,-0.5 0.5,-0.5 0.5,-0.5 0,0 0.5,0 0.5,0.5 0,0.2639 -0.0698,0.41145 -0.203125,0.5781 -0.133324,0.166701 -0.346679,0.334 -0.596679,0.5215 -0.25,0.1875 -0.536645,0.395201 -0.778321,0.6973 C 10.180201,13.59895 10,14.0139 10,14.5 l 0,0.5 3,0 0,-1 -1.82422,0 c 0.01565,-0.022 0.0094,-0.0556 0.02735,-0.0781 0.133325,-0.1667 0.34668,-0.334 0.59668,-0.5215 0.25,-0.1875 0.536645,-0.3952 0.77832,-0.6973 0.241676,-0.30205 0.421875,-0.717001 0.421875,-1.203101 0,-0.666649 -0.407109,-1.13765 -0.776365,-1.32225 C 11.854375,9.9930992 11.5,9.9999992 11.5,9.9999992 Z"/>
</svg>

<svg xmlns="http://www.w3.org/2000/svg" width="24" height="24" version="1"><path style="opacity:.2" d="M11.5 2.5c-.947.013-1.622.576-1.938 1.507l.011-.042L8.086 8.5H3.07a2.05 2.05 0 0 0-1.552.752c-.822.932-.648 2.398.397 3.093l3.943 2.843-1.53 4.69-.005.015a1.97 1.97 0 0 0 .574 2.072l.014.012a2.054 2.054 0 0 0 2.543.155L11.5 19.25l4.046 2.882.045.03a2.054 2.054 0 0 0 2.498-.185l.014-.012a1.97 1.97 0 0 0 .574-2.072l-.005-.016-1.53-4.69 3.943-2.842c1.045-.695 1.22-2.161.396-3.093A2.05 2.05 0 0 0 19.93 8.5h-5.016l-1.487-4.535.011.042c-.316-.931-.991-1.494-1.938-1.507z"/><path style="fill:#e6412b" d="M11.457 1.996a2.386 2.386 0 0 0-.457.055v.02c-.684.172-1.182.678-1.44 1.435l.012-.041L8.086 8H3.037a2.05 2.05 0 0 0-1.52.752c-.822.932-.648 2.397.397 3.092l3.943 2.844-1.529 4.689-.006.016a1.97 1.97 0 0 0 .574 2.072h.002l.012.012h.002c.707.62 1.7.698 2.498.185l.045-.03L11.5 18.75l4.047 2.883.045.03a2.054 2.054 0 0 0 2.498-.186l.014-.012a1.97 1.97 0 0 0 .574-2.072l-.006-.016-1.53-4.69 3.944-2.843c1.045-.695 1.22-2.16.396-3.092A2.05 2.05 0 0 0 19.93 8h-5.016l-1.486-4.535.011.04c-.277-.814-.961-1.525-1.982-1.509z"/><path style="opacity:.2;fill:#fff" d="M11.5 2c-.947.013-1.622.576-1.938 1.507l.011-.042L8.086 8H3.07a2.05 2.05 0 0 0-1.552.752 2.072 2.072 0 0 0-.5 1.643c.046-.41.207-.81.5-1.143A2.05 2.05 0 0 1 3.07 8.5h5.016l1.487-4.535-.011.042c.316-.931.991-1.494 1.938-1.507.947.013 1.622.576 1.938 1.507l-.011-.042L14.914 8.5h5.016a2.05 2.05 0 0 1 1.552.752c.293.332.454.733.5 1.143a2.072 2.072 0 0 0-.5-1.643A2.05 2.05 0 0 0 19.93 8h-5.016l-1.487-4.535.011.042C13.122 2.576 12.447 2.013 11.5 2zM5.727 15.092l-1.399 4.285-.005.016a2 2 0 0 0-.073.862c.015-.12.036-.242.073-.362l.005-.016 1.53-4.69-.131-.095zm11.546 0-.131.095 1.53 4.69.005.016c.037.12.058.241.073.362a2 2 0 0 0-.073-.862l-.005-.016-1.399-4.285z"/><path style="opacity:.2;fill-rule:evenodd" d="M11.5 10.5s-.354-.007-.724.178c-.369.184-.776.655-.776 1.322h1c0-.5.5-.5.5-.5s.5 0 .5.5a.82.82 0 0 1-.203.578c-.133.167-.347.334-.597.522-.25.187-.536.395-.778.697A1.924 1.924 0 0 0 10 15v.5h3v-1h-1.824c.015-.022.01-.056.027-.078.133-.167.347-.334.597-.522.25-.187.536-.395.778-.697.242-.302.422-.717.422-1.203 0-.667-.407-1.138-.776-1.322-.37-.185-.724-.178-.724-.178z"/><path style="fill:#ffd93a;fill-rule:evenodd" d="M11.5 10s-.354-.007-.724.178c-.369.184-.776.655-.776 1.322h1c0-.5.5-.5.5-.5s.5 0 .5.5a.82.82 0 0 1-.203.578c-.133.167-.347.334-.597.522-.25.187-.536.395-.778.697A1.924 1.924 0 0 0 10 14.5v.5h3v-1h-1.824c.015-.022.01-.056.027-.078.133-.167.347-.334.597-.522.25-.187.536-.395.778-.697.242-.302.422-.717.422-1.203 0-.667-.407-1.138-.776-1.322-.37-.185-.724-.178-.724-.178z"/></svg>
